X: 108
T: Hui guannan
%%abc-version 2.0
%%abcx-abcm2ps-target-version 5.9.1 (29 Sep 2008)
%%abc-creator hum2abc beta
%%abcx-conversion-date 2013/10/02 07:52:29
%%abc-edited-by Helmut Schaffrath
%%humdrum-veritas 695472802
%%humdrum-veritas-data 4094187314
%%continueall 1
%%barnumbers 0
L: 1/16
M: 2/4
K: C
D D D E E C A, C [I:setbarnb 1]| 
D4E D C B, | 
A,4A, A, A, C | 
[M:3/4]A A ^F2G8 | 
[M:2/4]A,2 A,2 C D C A, | 
G, A, C2 D C A, G, | 
E, E, E, G, E, D, C,2 | 
D,8 |]  



